icons/source/generic/careers.svg

<?xml version="1.0" encoding="utf-8"?>
<!-- Generated by IcoMoon.io -->
<!DOCTYPE svg PUBLIC "-//W3C//DTD SVG 1.1//EN" "http://www.w3.org/Graphics/SVG/1.1/DTD/svg11.dtd">
<svg version="1.1" xmlns="http://www.w3.org/2000/svg" xmlns:xlink="http://www.w3.org/1999/xlink" width="32" height="32" viewBox="0 0 32 32">
<path d="M26.363 2.132h-1.242c-0.687 0-1.121 0.601-1.121 1.288v7.712h-16v-7.712c0-0.687-0.83-1.288-1.516-1.288h-1.242c-0.686 0-1.242 0.601-1.242 1.288v28.712h4v-3h16v3h4v-28.712c0-0.687-0.949-1.288-1.637-1.288zM24 26.132h-16v-4h16v4zM24 18.132h-16v-3h16v3z"></path>
</svg>

<svg xmlns="http://www.w3.org/2000/svg" width="32" height="32" viewBox="0 0 32 32"><path d="M26.363 2.132h-1.242c-.687 0-1.121.601-1.121 1.288v7.712H8V3.42c0-.687-.83-1.288-1.516-1.288H5.242C4.556 2.132 4 2.733 4 3.42v28.712h4v-3h16v3h4V3.42c0-.687-.949-1.288-1.637-1.288zm-2.363 24H8v-4h16v4zm0-8H8v-3h16v3z"/></svg>
